src/pos-icons/shape.svg

<svg height="24" viewBox="0 0 24 24" width="24" xmlns="http://www.w3.org/2000/svg"><path d="m11 13.5v8h-8v-8zm1-11.5 5.5 9h-11zm5.5 11c2.5 0 4.5 2 4.5 4.5s-2 4.5-4.5 4.5-4.5-2-4.5-4.5 2-4.5 4.5-4.5z"/></svg>

<?xml version="1.0" encoding="UTF-8"?><!DOCTYPE svg PUBLIC "-//W3C//DTD SVG 1.1//EN" "http://www.w3.org/Graphics/SVG/1.1/DTD/svg11.dtd"><svg xmlns="http://www.w3.org/2000/svg" xmlns:xlink="http://www.w3.org/1999/xlink" version="1.1" id="mdi-shape" width="24" height="24" viewBox="0 0 24 24"><path d="M11,13.5V21.5H3V13.5H11M12,2L17.5,11H6.5L12,2M17.5,13C20,13 22,15 22,17.5C22,20 20,22 17.5,22C15,22 13,20 13,17.5C13,15 15,13 17.5,13Z" /></svg>
